X:66
T:What you will
M:6/8
L:1/8
B:Thompson's Compleat Collection of 200 Favourite Country Dances, vol. 3 (London, 1773)
Z:Transcribed and edited by Flynn Titford-Mock, 2007
Z:abc's:AK/Fiddler's Companion
K:D
A | dAF EFG | AFD A,CD | dAF EFG | AA,^C D2::A | dcd ece | fdf ece |
dcd ecA | Aag 'tr"f2e | afd ecA | fdB ecA | dAF BGE | AA,C D2 :|

